X:1
T:Title
%%score 1 2
L:1/8
Q:1/4=90
M:3/4
K:F
V:1 treble nm="Strings 1, Soprano"
V:2 bass nm="Strings 1, Bass"
V:1
 z2 z2 [CF][EG] | [FA]3 [F_A] [F=A][CG] | [CF]4 [FA][GB] | [Ac]3 [Bd] [Ac][GB] | [FA]4 [FA]2 | %5
w: 1.~As~ we~|think~ of~ our~ dear~|Lord,~ how~ He~|bore~ our~ sin~ and~|shame,~ The~|
 [EG]4 [EG][FA] | [GB]3 [GB] [FA][E_A] | [FA]6- | [FA]4 [Fc][Fc] | [Fd]3 [Fd] [Fd][Fc] | %10
w: load~ was~ so~|heav y~ on~ His~|soul;~|* When~ He~|suf fered~ all~ the~|
 [DB]4 [Fd][Fd] | [Fc]3 [Fd] [Fc][GB] | [FA]4 [FA][FA] | [EG]4 [EG][EA] | [EB]3 [EB] [EA][EG] | %15
w: scoffs,~ and~ the~|scorns~ from~ those~ He~|loved,~ He~ was~|suf f'ring~ that~|we~ could~ be~ made~|
 [CF]6- | [CF]4 [Fc]2 | [Fd]3 [F^c] [Fd]2 | [DB]4 [Fd][Fd] | [Fc]3 [Fd] [Dc][GB] | [CA]4 [FA]2 | %21
w: whole.~||||||
 [EG]3 [_E^F] [=EG][=FA] | [EB]4 [FA][E_A] | [FA]6- | [FA]4 [Fc][Fc] | [Fd]3 [F^c] [Fd][F=c] | %26
w: |||||
 [DB]4 [Fd][Fd] | [Fc]3 [Fd] [Fc][GB] | [FA]4 [FA][FA] | [EG]4 [EG][EA] | [EB]3 [EB] [EA][EG] | %31
w: * and~ the~|scorns~ from~ those~ He~|loved,~ He~ was~|suf f'ring~ that~|we~ could~ be~ made~|
 [CF]6- | [CF]4 z2 |] %33
w: whole.~||
V:2
 z2 z2 [F,A,][G,C] | [F,C]3 [F,=B,] [F,C][C,_B,] | [F,A,]4 [F,C][C,C] | [F,C]3 [F,B,] [F,C][C,B,] | %4
 [F,C]4 [F,C]2 | [C,C]4 [C,B,][F,C] | [C,C]3 [C,C] [C,C][E,C] | [F,C]6- | [F,C]4 [F,A,][F,A,] | %9
 [B,,B,]3 [B,,B,] [B,,B,][C,A,] | [B,,F,]4 [B,,B,][B,,B,] | [F,A,]3 [B,,B,] [F,A,][C,B,] | %12
 [F,C]4 [F,C][F,C] | [C,C]4 [C,B,][C,C] | [C,G,]3 [C,G,] [C,G,][D,B,] | [F,A,]6- | %16
 [F,A,]4 [F,A,]2 | [B,,B,]3 [B,,B,] [B,,B,]2 | [B,,F,]4 [B,,B,][B,,B,] | [F,A,]3 [B,,B,] [C,G,]2 | %20
 [F,A,]4 [F,C]2 | [C,C]3 [C,C] [C,C][F,C] | [C,C]4 [C,C][E,C] | [F,C]6- | [F,C]4 [F,A,][F,A,] | %25
 [B,,B,]3 [B,,B,] [B,,B,][B,,B,] | [B,,F,]4 [B,,B,][B,,B,] | [F,A,]3 [B,,B,] [F,A,][C,B,] | %28
 [F,C]4 [F,C][F,C] | [C,C]4 [C,B,][C,C] | [C,G,]3 [C,G,] [C,G,][D,B,] | [F,A,]6- | [F,A,]4 z2 |] %33

